X:146
T:
N:Sjöngs av farfar eller morfar, då han dansade med ett barnbarn på knäna;
S:uppt. efter Mattias Thomasson, Sallmans i Burs.
M:3/4
L:1/8
K:D
A d d2 d d|c B A2 z2|B2 G2 G B|
w:Upp äi ta-kä u nir i-gänn.~— Gi sor-kar läit
A2 F2 z2|B2 G2 G B|A2 F2 z2|A2 A2 B c|
w:bränn-väin! Gi päi-kar en gull-riŋg! Gi gub-bar a
d A F2 A2|A2 (AB) A G|F E E2 D2|]
w:tou-baks-päi-på! Gi käl--liŋ-gar sma-kä sväi-pu!
